packages/core/assets/Icons/more_vert.svg

<svg viewBox="0 0 20 20" fill="none" xmlns="http://www.w3.org/2000/svg">
<path d="M10 16.6667C9.54171 16.6667 9.14935 16.5035 8.82296 16.1771C8.49657 15.8507 8.33337 15.4584 8.33337 15C8.33337 14.5417 8.49657 14.1493 8.82296 13.823C9.14935 13.4966 9.54171 13.3334 10 13.3334C10.4584 13.3334 10.8507 13.4966 11.1771 13.823C11.5035 14.1493 11.6667 14.5417 11.6667 15C11.6667 15.4584 11.5035 15.8507 11.1771 16.1771C10.8507 16.5035 10.4584 16.6667 10 16.6667ZM10 11.6667C9.54171 11.6667 9.14935 11.5035 8.82296 11.1771C8.49657 10.8507 8.33337 10.4584 8.33337 10C8.33337 9.54171 8.49657 9.14935 8.82296 8.82296C9.14935 8.49657 9.54171 8.33337 10 8.33337C10.4584 8.33337 10.8507 8.49657 11.1771 8.82296C11.5035 9.14935 11.6667 9.54171 11.6667 10C11.6667 10.4584 11.5035 10.8507 11.1771 11.1771C10.8507 11.5035 10.4584 11.6667 10 11.6667ZM10 6.66671C9.54171 6.66671 9.14935 6.50351 8.82296 6.17712C8.49657 5.85074 8.33337 5.45837 8.33337 5.00004C8.33337 4.54171 8.49657 4.14935 8.82296 3.82296C9.14935 3.49657 9.54171 3.33337 10 3.33337C10.4584 3.33337 10.8507 3.49657 11.1771 3.82296C11.5035 4.14935 11.6667 4.54171 11.6667 5.00004C11.6667 5.45837 11.5035 5.85074 11.1771 6.17712C10.8507 6.50351 10.4584 6.66671 10 6.66671Z" fill="currentColor"/>
</svg>

<svg xmlns="http://www.w3.org/2000/svg" width="20" height="20" fill="none" viewBox="0 0 20 20">
  <path fill="#201F1F" d="M10 16.667c-.458 0-.85-.164-1.177-.49A1.605 1.605 0 0 1 8.333 15c0-.458.164-.85.49-1.177.326-.326.719-.49 1.177-.49.458 0 .85.164 1.177.49.327.326.49.719.49 1.177 0 .458-.163.85-.49 1.177-.326.326-.719.49-1.177.49Zm0-5c-.458 0-.85-.163-1.177-.49A1.605 1.605 0 0 1 8.333 10c0-.458.164-.85.49-1.177.326-.326.719-.49 1.177-.49.458 0 .85.164 1.177.49.327.326.49.719.49 1.177 0 .458-.163.85-.49 1.177-.326.327-.719.49-1.177.49Zm0-5c-.458 0-.85-.163-1.177-.49A1.605 1.605 0 0 1 8.333 5c0-.458.164-.85.49-1.177.326-.326.719-.49 1.177-.49.458 0 .85.164 1.177.49.327.326.49.719.49 1.177 0 .458-.163.85-.49 1.177-.326.327-.719.49-1.177.49Z"/>
</svg>
